X:1
T:Title
%%score ( 1 2 ) ( 3 4 )
L:1/8
Q:1/4=90
M:4/4
K:F
V:1 treble nm="Midi_20"
V:2 treble 
V:3 bass nm="Midi_20"
V:4 bass 
V:1
"^Woolmer's (L.M.)""^F. A. Gore Ouseley\n(1825-89)" F2 | F2 G2 E2 E2 | F2 G2 A2 || c2 | %4
 B2 G2 A2 F2 | E2 D2 C4 || E2 | F2 G2 A2 F2 | B2 c2 d2 || d2 | c2 B2 A2 c2 | F2 G2 F4 |] %12
V:2
 C2 | D2 D2 C2 C2 | C2 C2 C2 || C2 | F2 C2 C2 C2 | C2 =B,2 C4 || ^C2 | D2 E2 F2 C2 | F2 _E2 D2 || %9
 G2 | A2 G2 F2 F2 | D2 E2 F4 |] %12
V:3
 A,2 | A,2 B,2 G,2 G,2 | F,2 E,2 F,2 || G,2 | B,2 B,2 A,2 C2 | G,3 F, E,4 || A,2 | A,2 C2 C2 A,2 | %8
 B,2 G,A, B,2 || E2 | F2 C2 C2 C2 | A,2 B,2 A,4 |] %12
V:4
 F,2 | D,2 B,,2 C,2 B,,2 | A,,2 C,2 F,2 || E,2 | D,2 E,2 F,2 A,2 | G,2 G,,2 C,4 || A,,2 | %7
 D,2 C,2 F,2 _E,2 | D,2 C,2 B,2 || B,2 | A,2 E,2 F,2 A,,2 | D,2 C,2 F,4 |] %12

